resources/svg/regular/font-size.svg

<svg xmlns="http://www.w3.org/2000/svg" fill="currentColor" stroke="none" viewBox="0 0 24 24"><path d="m22 6-3-4-3 4h2v4h-2l3 4 3-4h-2V6zM9.307 4l-6 16h2.137l1.875-5h6.363l1.875 5h2.137l-6-16H9.307zm-1.239 9L10.5 6.515 12.932 13H8.068z"/></svg>

<svg xmlns="http://www.w3.org/2000/svg" fill="currentColor" stroke="none" viewBox="0 0 24 24"><path d="M22 6L19 2 16 6 18 6 18 10 16 10 19 14 22 10 20 10 20 6zM9.307 4l-6 16h2.137l1.875-5h6.363l1.875 5h2.137l-6-16H9.307zM8.068 13L10.5 6.515 12.932 13H8.068z"/></svg>
